svg/aperture.svg

<svg xmlns="http://www.w3.org/2000/svg" width="8" height="8" viewBox="0 0 8 8">
  <path d="M4 0c-.69 0-1.34.19-1.91.5l3.22 2.34.75-2.25c-.6-.36-1.31-.59-2.06-.59zm-2.75 1.13c-.76.73-1.25 1.74-1.25 2.88 0 .25.02.48.06.72l3.09-2.22-1.91-1.38zm5.63.13l-1.22 3.75h2.19c.08-.32.16-.65.16-1 0-1.07-.44-2.03-1.13-2.75zm-4.72 3.22l-1.75 1.25c.55 1.13 1.6 1.99 2.88 2.22l-1.13-3.47zm1.56 1.53l.63 1.97c1.33-.12 2.46-.88 3.09-1.97h-3.72z"
  />
</svg>

<?xml version="1.0" encoding="UTF-8" standalone="no"?>
<svg
   width="8"
   height="8"
   viewBox="0 0 8 8"
   version="1.1"
   id="svg1"
   sodipodi:docname="aperture.svg"
   inkscape:version="1.3 (0e150ed6c4, 2023-07-21)"
   xmlns:inkscape="http://www.inkscape.org/namespaces/inkscape"
   xmlns:sodipodi="http://sodipodi.sourceforge.net/DTD/sodipodi-0.dtd"
   xmlns="http://www.w3.org/2000/svg"
   xmlns:svg="http://www.w3.org/2000/svg">
  <defs
     id="defs1" />
  <sodipodi:namedview
     id="namedview1"
     pagecolor="#505050"
     bordercolor="#eeeeee"
     borderopacity="1"
     inkscape:showpageshadow="0"
     inkscape:pageopacity="0"
     inkscape:pagecheckerboard="0"
     inkscape:deskcolor="#505050"
     showgrid="false"
     inkscape:zoom="94.88"
     inkscape:cx="3.9997892"
     inkscape:cy="3.9997892"
     inkscape:window-width="1254"
     inkscape:window-height="1041"
     inkscape:window-x="1297"
     inkscape:window-y="0"
     inkscape:window-maximized="1"
     inkscape:current-layer="svg1" />
  <rect
     style="fill:#ff1161;fill-rule:evenodd;stroke:#f6e04e;stroke-width:0;stroke-dasharray:none;stroke-opacity:0"
     id="rect1"
     width="7.9999409"
     height="7.9999685"
     x="2.9563904e-05"
     y="1.5735626e-05"
     inkscape:label="bg" />
  <path
     d="M 3.72,6.01 4.35,7.98 C 5.68,7.86 6.81,7.1 7.44,6.01 Z"
     id="path5"
     style="display:inline;fill:#11a1ff"
     inkscape:label="blue" />
  <path
     d="M 2.16,4.48 0.41,5.73 c 0.55,1.13 1.6,1.99 2.88,2.22 z"
     id="path4"
     style="display:inline;fill:#f6e04e"
     inkscape:label="yellow" />
  <path
     d="M 6.88,1.26 5.66,5.01 H 7.85 C 7.93,4.69 8.01,4.36 8.01,4.01 8.01,2.94 7.57,1.98 6.88,1.26 Z"
     id="path3"
     style="display:inline;fill:#61bb94"
     inkscape:label="green" />
  <path
     d="M 1.25,1.13 C 0.49,1.86 0,2.87 0,4.01 0,4.26 0.02,4.49 0.06,4.73 L 3.15,2.51 1.24,1.13 Z"
     id="path2"
     style="display:inline;fill:#7f7f7f"
     inkscape:label="grey" />
  <path
     d="M 4,0 C 3.31,0 2.66,0.19 2.09,0.5 L 5.31,2.84 6.06,0.59 C 5.46,0.23 4.75,0 4,0 Z"
     id="path1"
     style="display:inline;fill:#d5fff3"
     inkscape:label="white" />
</svg>
